symbols/web/sports_mma/materialsymbolsoutlined/sports_mma_wght100gradN25fill1_24px.svg

<svg xmlns="http://www.w3.org/2000/svg" height="24" width="24"><path d="M9.375 19.05q-.425 0-.7-.287-.275-.288-.275-.713v-1.925h7.325v1.925q0 .425-.287.713-.288.287-.713.287ZM17.3 7.2v3.75q0 .075-.05.2l-.6 2.775q-.075.3-.3.487-.225.188-.525.188h-7.7q-.3 0-.525-.188-.225-.187-.3-.487L6.775 11.2q-.05-.125-.05-.2V5.65q0-.625.413-1.038Q7.55 4.2 8.175 4.2h6.275q.65 0 1.063.412.412.413.412 1.038V7.2q0-.275.2-.487.2-.213.5-.213.275 0 .475.213.2.212.2.487ZM9.375 9.7h3.9V8.375h-3.9Z"/></svg>

<svg xmlns="http://www.w3.org/2000/svg" height="24" width="24"><path d="M9.375 19.05Q8.95 19.05 8.675 18.763Q8.4 18.475 8.4 18.05V16.125H15.725V18.05Q15.725 18.475 15.438 18.763Q15.15 19.05 14.725 19.05ZM17.3 7.2V10.75Q17.3 10.875 17.3 10.95Q17.3 11.025 17.25 11.15L16.65 13.925Q16.575 14.225 16.35 14.412Q16.125 14.6 15.825 14.6H8.125Q7.825 14.6 7.6 14.412Q7.375 14.225 7.3 13.925L6.775 11.2Q6.725 11.075 6.725 11Q6.725 10.925 6.725 10.8V5.65Q6.725 5.025 7.138 4.612Q7.55 4.2 8.175 4.2H14.45Q15.1 4.2 15.513 4.612Q15.925 5.025 15.925 5.65V7.2Q15.925 6.925 16.125 6.713Q16.325 6.5 16.625 6.5Q16.9 6.5 17.1 6.713Q17.3 6.925 17.3 7.2ZM9.375 9.7H13.275V8.375H9.375Z"/></svg>
